home/modules/ROOT/images/jet.svg

<svg fill="none" height="51" viewBox="0 0 51 51" width="51" xmlns="http://www.w3.org/2000/svg"><path d="m22.7199 18.49c.2-.07.4-.13.6-.18 0-.41-.05-.81-.06-1.22-.0911-2.7715.2085-5.542.89-8.23l.2-.74c-1.3052-1.56893-2.9363-2.8349-4.78-3.71-.9092.24383-1.8011.54784-2.67.91l.78 1.89zm-11.61-7.39 9.26 8.78c.16-.14.3233-.2733.49-.4-.18-.36-.35-.72-.52-1.08-1.1487-2.5273-1.9364-5.2034-2.34-7.95l-.1-.75c-1.8013-.94837-3.787-1.49428-5.82-1.6-.734.58738-1.4288 1.22206-2.08 1.9l1.16 1.16zm-4.28 6.4 11.88 4.57c.0933-.1933.1933-.38.3-.56-.29-.26-.59-.52-.87-.79-2.0239-1.8998-3.7709-4.0743-5.19-6.46l-.37-.63c-2.03-.1913-4.07732.0612-6 .74-.47886.8143-.90313 1.6595-1.27 2.53l1.59.66zm-1.5 7.57 12.67-.32c0-.22.02-.4333.06-.64-.37-.13-.73-.25-1.09-.39-2.5954-.9868-5.0392-2.3333-7.26-4l-.58-.44c-1.96107.6021-3.76664 1.6261-5.29 3-.12471.9315-.18818 1.8702-.19 2.81h1.8z" fill="#0b2a35"/><path d="m39.06 11.15-8.82 9.3c.1333.1467.26.3.38.46.39-.19.78-.38 1.18-.56 2.5198-1.152 5.1894-1.9431 7.93-2.35l.74-.1c.9609-1.8118 1.5138-3.8119 1.62-5.86-.5727-.7187-1.1906-1.4-1.85-2.04l-1.24 1.16z" fill="#2e7de1"/><path d="m25.4301 18.12.61.06c.13-.39.27-.79.42-1.18.9855-2.5929 2.3321-5.0336 4-7.25l.47-.62c-.6047-1.95397-1.6286-3.75246-3-5.27-.9315-.12471-1.8702-.18818-2.81-.19v2.33z" fill="#0b2a35"/><path d="m28.0701 18.81c.18.0867.3566.1833.53.29.28-.32.56-.64.86-.95 1.8973-2.0112 4.0686-3.745 6.45-5.15l.66-.38c.1913-2.03-.0612-4.07732-.74-6-.8133-.49251-1.6585-.93015-2.53-1.31l-.8 1.93z" fill="#2e7de1"/><g fill="#0b2a35"><path d="m43.3499 17.57-11.74 5.21c.07.18.12.37.17.57.44 0 .88-.05 1.32-.07 2.7726-.0887 5.5438.2177 8.23.91l.7.19c1.5869-1.3096 2.867-2.9516 3.75-4.81-.2438-.9092-.5478-1.8011-.91-2.67l-1.63.67zm-15.9 14.09-.58.19c0 .42.05.84.07 1.26.0742 2.7705-.2422 5.5377-.94 8.22l-.2.74c1.3023 1.5678 2.9299 2.8337 4.77 3.71.9092-.2438 1.8012-.5478 2.67-.91l-.73-1.87zm11.64 7.44-9.34-8.86c-.15.13-.29.26-.45.38.19.39.38.78.56 1.18 1.1454 2.5277 1.9297 5.2039 2.33 7.95l.1.75c1.8013.9484 3.7871 1.4943 5.82 1.6.7499-.5728 1.4614-1.1941 2.13-1.86l-1.16-1.16zm4.28-6.41-12-4.63c-.08.18-.17.35-.27.52.33.29.66.58 1 .89 2.0238 1.8999 3.7708 4.0744 5.19 6.46l.37.63c2.03.1913 4.0773-.0612 6-.74.4755-.8146.8964-1.6597 1.26-2.53l-1.59-.66zm1.38-7.59h.12l-12.87.35c0 .2 0 .39-.05.58.42.14.84.29 1.25.45 2.5954.9868 5.0393 2.3333 7.26 4l.58.44c1.9611-.6021 3.7667-1.6261 5.29-3 .1247-.9315.1882-1.8702.19-2.81h-1.77zm-22.65 6.36c-.19-.09-.38-.19-.57-.29-.26.3-.52.59-.8.88-1.8962 2.018-4.0676 3.7585-6.45 5.17l-.66.38c-.1913 2.03.0612 4.0773.74 6 .8146.4754 1.6598.8964 2.53 1.26l.81-1.86zm-10.96 7.54 8.74-9.21c-.1466-.16-.2866-.3233-.42-.49-.35.17-.7.34-1.05.5-2.525 1.1392-5.1979 1.9169-7.94 2.31l-.73998.1c-.97003 1.8231-1.52655 3.8375-1.63 5.9.58566.7511 1.22038 1.4627 1.9 2.13l1.19998-1.2zm-4.28998-6.37 11.58998-5.15c-.0733-.2-.1366-.4067-.19-.62l-1.15.06h-.81c-2.5027.0163-4.997-.293-7.41998-.92l-.7-.19c-1.58688 1.3096-2.867 2.9516-3.75 4.81.24384.9092.54784 1.8012.91 2.67l1.63-.67zm17.91998-.54h-.62c-.13.39-.26.77-.41 1.15-.9853 2.5929-2.332 5.0337-4 7.25l-.47.62c.6048 1.954 1.6286 3.7525 3 5.27.9315.1247 1.8702.1882 2.81.19v-2.38z"/><path d="m25.0201 30.31c2.8774 0 5.21-2.3326 5.21-5.21s-2.3326-5.21-5.21-5.21-5.21 2.3326-5.21 5.21 2.3326 5.21 5.21 5.21z"/><path d="m25.1 50.2c-4.9643 0-9.8171-1.4721-13.9448-4.2301-4.12767-2.758-7.34481-6.6781-9.24456-11.2645-1.8997645-4.5865-2.396828-9.6332-1.428339-14.5022.968489-4.8689 3.359029-9.3413 6.869329-12.85158 3.51027-3.5103 7.98267-5.90084 12.85157-6.869331 4.869-.968489 9.9157-.471425 14.5022 1.428331 4.5864 1.89976 8.5065 5.11689 11.2645 9.24458 2.758 4.1277 4.2301 8.9805 4.2301 13.9448-.0079 6.6545-2.6549 13.0342-7.3604 17.7396-4.7054 4.7055-11.0851 7.3525-17.7396 7.3604zm0-48.57c-4.6419 0-9.1796 1.37649-13.0392 3.95541-3.85964 2.57891-6.86785 6.24439-8.64424 10.53299s-2.24117 9.0076-1.33558 13.5604c.9056 4.5527 3.1409 8.7347 6.42324 12.017 3.28238 3.2823 7.46428 5.5176 12.01698 6.4232 4.5528.9056 9.2718.4408 13.5604-1.3355 4.2886-1.7764 7.9541-4.7846 10.533-8.6443 2.5789-3.8596 3.9554-8.3973 3.9554-13.0392-.0053-6.223-2.4797-12.1896-6.88-16.58995-4.4004-4.40033-10.367-6.87475-16.59-6.88005z"/></g></svg>

<svg width="51" height="51" viewBox="0 0 51 51" fill="none" xmlns="http://www.w3.org/2000/svg">
<path d="M22.7199 18.49C22.9199 18.42 23.1199 18.36 23.3199 18.31C23.3199 17.9 23.2699 17.5 23.2599 17.09C23.1688 14.3185 23.4684 11.548 24.1499 8.86L24.3499 8.12C23.0447 6.55107 21.4136 5.2851 19.5699 4.41C18.6607 4.65383 17.7688 4.95784 16.8999 5.32L17.6799 7.21L22.7199 18.49ZM11.1099 11.1L20.3699 19.88C20.5299 19.74 20.6932 19.6067 20.8599 19.48C20.6799 19.12 20.5099 18.76 20.3399 18.4C19.1912 15.8727 18.4035 13.1966 17.9999 10.45L17.8999 9.7C16.0986 8.75163 14.1129 8.20572 12.0799 8.1C11.3459 8.68738 10.6511 9.32206 9.9999 10L11.1599 11.16L11.1099 11.1ZM6.8299 17.5L18.7099 22.07C18.8032 21.8767 18.9032 21.69 19.0099 21.51C18.7199 21.25 18.4199 20.99 18.1399 20.72C16.116 18.8202 14.369 16.6457 12.9499 14.26L12.5799 13.63C10.5499 13.4387 8.50258 13.6912 6.5799 14.37C6.10104 15.1843 5.67677 16.0295 5.3099 16.9L6.8999 17.56L6.8299 17.5ZM5.3299 25.07L17.9999 24.75C17.9999 24.53 18.0199 24.3167 18.0599 24.11C17.6899 23.98 17.3299 23.86 16.9699 23.72C14.3745 22.7332 11.9307 21.3867 9.7099 19.72L9.1299 19.28C7.16883 19.8821 5.36326 20.9061 3.8399 22.28C3.71519 23.2115 3.65172 24.1502 3.6499 25.09H5.4499L5.3299 25.07Z" fill="#0B2A35"/>
<path d="M39.06 11.15L30.24 20.45C30.3733 20.5967 30.5 20.75 30.62 20.91C31.01 20.72 31.4 20.53 31.8 20.35C34.3198 19.198 36.9894 18.4069 39.73 18L40.47 17.9C41.4309 16.0882 41.9838 14.0881 42.09 12.04C41.5173 11.3213 40.8994 10.64 40.24 10L39 11.16L39.06 11.15Z" fill="#2E7DE1"/>
<path d="M25.4301 18.12L26.0401 18.18C26.1701 17.79 26.3101 17.39 26.4601 17C27.4456 14.4071 28.7922 11.9664 30.4601 9.75L30.9301 9.13C30.3254 7.17603 29.3015 5.37754 27.9301 3.86C26.9986 3.73529 26.0599 3.67182 25.1201 3.67V6L25.4301 18.12Z" fill="#0B2A35"/>
<path d="M28.0701 18.81C28.2501 18.8967 28.4267 18.9933 28.6001 19.1C28.8801 18.78 29.1601 18.46 29.4601 18.15C31.3574 16.1388 33.5287 14.405 35.9101 13L36.5701 12.62C36.7614 10.59 36.5089 8.54268 35.8301 6.62C35.0168 6.12749 34.1716 5.68985 33.3001 5.31L32.5001 7.24L28.0701 18.81Z" fill="#2E7DE1"/>
<path d="M43.3499 17.57L31.6099 22.78C31.6799 22.96 31.7299 23.15 31.7799 23.35C32.2199 23.35 32.6599 23.3 33.0999 23.28C35.8725 23.1913 38.6437 23.4977 41.3299 24.19L42.0299 24.38C43.6168 23.0704 44.8969 21.4284 45.7799 19.57C45.5361 18.6608 45.2321 17.7689 44.8699 16.9L43.2399 17.57H43.3499ZM27.4499 31.66L26.8699 31.85C26.8699 32.27 26.9199 32.69 26.9399 33.11C27.0141 35.8805 26.6977 38.6477 25.9999 41.33L25.7999 42.07C27.1022 43.6378 28.7298 44.9037 30.5699 45.78C31.4791 45.5362 32.3711 45.2322 33.2399 44.87L32.5099 43L27.4499 31.66ZM39.0899 39.1L29.7499 30.24C29.5999 30.37 29.4599 30.5 29.2999 30.62C29.4899 31.01 29.6799 31.4 29.8599 31.8C31.0053 34.3277 31.7896 37.0039 32.1899 39.75L32.2899 40.5C34.0912 41.4484 36.077 41.9943 38.1099 42.1C38.8598 41.5272 39.5713 40.9059 40.2399 40.24L39.0799 39.08L39.0899 39.1ZM43.3699 32.69L31.3699 28.06C31.2899 28.24 31.1999 28.41 31.0999 28.58C31.4299 28.87 31.7599 29.16 32.0999 29.47C34.1237 31.3699 35.8707 33.5444 37.2899 35.93L37.6599 36.56C39.6899 36.7513 41.7372 36.4988 43.6599 35.82C44.1354 35.0054 44.5563 34.1603 44.9199 33.29L43.3299 32.63L43.3699 32.69ZM44.7499 25.1H44.8699L31.9999 25.45C31.9999 25.65 31.9999 25.84 31.9499 26.03C32.3699 26.17 32.7899 26.32 33.1999 26.48C35.7953 27.4668 38.2392 28.8133 40.4599 30.48L41.0399 30.92C43.001 30.3179 44.8066 29.2939 46.3299 27.92C46.4546 26.9885 46.5181 26.0498 46.5199 25.11H44.7499V25.1ZM22.0999 31.46C21.9099 31.37 21.7199 31.27 21.5299 31.17C21.2699 31.47 21.0099 31.76 20.7299 32.05C18.8337 34.068 16.6623 35.8085 14.2799 37.22L13.6199 37.6C13.4286 39.63 13.6811 41.6773 14.3599 43.6C15.1745 44.0754 16.0197 44.4964 16.8899 44.86L17.6999 43L22.0999 31.46ZM11.1399 39L19.8799 29.79C19.7333 29.63 19.5933 29.4667 19.4599 29.3C19.1099 29.47 18.7599 29.64 18.4099 29.8C15.8849 30.9392 13.212 31.7169 10.4699 32.11L9.72992 32.21C8.75989 34.0331 8.20337 36.0475 8.09992 38.11C8.68558 38.8611 9.3203 39.5727 9.99992 40.24L11.1999 39.04L11.1399 39ZM6.84992 32.63L18.4399 27.48C18.3666 27.28 18.3033 27.0733 18.2499 26.86L17.0999 26.92H16.2899C13.7872 26.9363 11.2929 26.627 8.86992 26L8.16992 25.81C6.58304 27.1196 5.30292 28.7616 4.41992 30.62C4.66376 31.5292 4.96776 32.4212 5.32992 33.29L6.95992 32.62L6.84992 32.63ZM24.7699 32.09H24.1499C24.0199 32.48 23.8899 32.86 23.7399 33.24C22.7546 35.8329 21.4079 38.2737 19.7399 40.49L19.2699 41.11C19.8747 43.064 20.8985 44.8625 22.2699 46.38C23.2014 46.5047 24.1401 46.5682 25.0799 46.57V44.19L24.7699 32.09Z" fill="#0B2A35"/>
<path d="M25.0201 30.31C27.8975 30.31 30.2301 27.9774 30.2301 25.1C30.2301 22.2226 27.8975 19.89 25.0201 19.89C22.1427 19.89 19.8101 22.2226 19.8101 25.1C19.8101 27.9774 22.1427 30.31 25.0201 30.31Z" fill="#0B2A35"/>
<path d="M25.1 50.2C20.1357 50.2 15.2829 48.7279 11.1552 45.9699C7.02753 43.2119 3.81039 39.2918 1.91064 34.7054C0.0108755 30.1189 -0.486188 25.0722 0.482301 20.2032C1.45079 15.3343 3.84133 10.8619 7.35163 7.35162C10.8619 3.84132 15.3343 1.45078 20.2032 0.482289C25.0722 -0.4862 30.1189 0.010864 34.7054 1.91062C39.2918 3.81038 43.2119 7.02751 45.9699 11.1552C48.7279 15.2829 50.2 20.1357 50.2 25.1C50.1921 31.7545 47.5451 38.1342 42.8396 42.8396C38.1342 47.5451 31.7545 50.1921 25.1 50.2ZM25.1 1.63C20.4581 1.63 15.9204 3.00649 12.0608 5.58541C8.20116 8.16432 5.19295 11.8298 3.41656 16.1184C1.64017 20.407 1.17539 25.126 2.08098 29.6788C2.98658 34.2315 5.22188 38.4135 8.50422 41.6958C11.7866 44.9781 15.9685 47.2134 20.5212 48.119C25.074 49.0246 29.793 48.5598 34.0816 46.7835C38.3702 45.0071 42.0357 41.9989 44.6146 38.1392C47.1935 34.2796 48.57 29.7419 48.57 25.1C48.5647 18.877 46.0903 12.9104 41.69 8.51005C37.2896 4.10972 31.323 1.6353 25.1 1.63V1.63Z" fill="#0B2A35"/>
</svg>
